resources/svg/snowy-line.svg

<svg fill="currentColor" viewBox="0 0 24 24" xmlns="http://www.w3.org/2000/svg"><path d="M13 16.268L14.9641 15.134L15.9641 16.866L14 18L15.9641 19.134L14.9641 20.866L13 19.732V22H11V19.732L9.0359 20.866L8.0359 19.134L10 18L8.0359 16.866L9.0359 15.134L11 16.268V14H13V16.268ZM17 18V16H17.5C19.433 16 21 14.433 21 12.5C21 10.567 19.433 9 17.5 9C16.5205 9 15.6351 9.40232 14.9998 10.0507C14.9999 10.0338 15 10.0169 15 10C15 6.68629 12.3137 4 9 4C5.68629 4 3 6.68629 3 10C3 12.6124 4.66962 14.8349 7 15.6586V17.748C3.54955 16.8599 1 13.7277 1 10C1 5.58172 4.58172 2 9 2C12.3949 2 15.2959 4.11466 16.4576 7.09864C16.7951 7.0339 17.1436 7 17.5 7C20.5376 7 23 9.46243 23 12.5C23 15.5376 20.5376 18 17.5 18H17Z"/></svg>

<svg xmlns="http://www.w3.org/2000/svg" viewBox="0 0 24 24" fill="currentColor">
    <g>
        <path fill="none" d="M0 0h24v24H0z"/>
        <path d="M13 16.268l1.964-1.134 1 1.732L14 18l1.964 1.134-1 1.732L13 19.732V22h-2v-2.268l-1.964 1.134-1-1.732L10 18l-1.964-1.134 1-1.732L11 16.268V14h2v2.268zM17 18v-2h.5a3.5 3.5 0 1 0-2.5-5.95V10a6 6 0 1 0-8 5.659v2.089a8 8 0 1 1 9.458-10.65A5.5 5.5 0 1 1 17.5 18l-.5.001z"/>
    </g>
</svg>
